X: 4
T: The Coalminer's
R: reel
M: 4/4
L: 1/8
K: Dmaj
A,DFD E2EF|ABAF EDB,D|A,DFD EDFA|dBAF EDB,D|A,DFD EDEF|ABAF EDB,D|A,DFD EDFA|1 dBAF D3B,:|2 dBAF D2Bc|||:~d3B ABdB|ABAF EDB,D|dcdB ABde|fedf e2de|f2df efdB|ABAF EDB,D|A,DFD EDFA|1 dBAF D2 (3ABc:|2 dBAF D3B,||


Tune 1617	Setting 15041

